X: 2037
Q: "Strathspey."
M: C
L: 1/16
K: A
[|\
d2 |\
ce3A3e c3e dcBA | GB3E3B GB3E3d |\
ce2A3e c3e dcBA | GB2E3G A6 d2 |
ce3A3e (e2f2g2)a2 | FB3 B3c dcBA GFED |\


